symbols/web/local_fire_department/materialsymbolsoutlined/local_fire_department_wght300grad200_40px.svg

<svg xmlns="http://www.w3.org/2000/svg" height="40" width="40"><path d="M9.958 23.333q0 2.417 1.167 4.542t3.167 3.375q-.209-.333-.334-.75-.125-.417-.125-.792.042-1.125.5-2.125.459-1 1.334-1.791L20 21.5l4.417 4.292q.791.791 1.25 1.791.458 1 .5 2.125 0 .375-.125.792-.125.417-.334.75 2-1.25 3.167-3.375 1.167-2.125 1.167-4.542 0-2-.792-3.895Q28.458 17.542 27 16q-.833.583-1.75.854t-1.875.271q-2.583 0-4.375-1.583-1.792-1.584-2.125-4.125V11q-1.667 1.333-2.937 2.833-1.271 1.5-2.167 3.084-.896 1.583-1.354 3.229-.459 1.646-.459 3.187ZM20 25.417l-2.375 2.375q-.542.5-.771 1.083-.229.583-.229 1.208 0 1.375.979 2.334.979.958 2.396.958 1.375 0 2.375-.958 1-.959 1-2.334 0-.666-.25-1.25-.25-.583-.708-1.041Zm-.458-19.542V10.5q0 1.625 1.125 2.708 1.125 1.084 2.708 1.084.667 0 1.292-.25t1.166-.75l.959-1q2.791 1.833 4.437 4.791 1.646 2.959 1.646 6.25 0 5.375-3.75 9.105-3.75 3.729-9.125 3.729t-9.104-3.729q-3.729-3.73-3.729-9.105 0-4.958 3.291-9.687 3.292-4.729 9.084-7.771Z"/></svg>

<svg xmlns="http://www.w3.org/2000/svg" height="40" width="40"><path d="M9.958 23.333Q9.958 25.75 11.125 27.875Q12.292 30 14.292 31.25Q14.083 30.917 13.958 30.5Q13.833 30.083 13.833 29.708Q13.875 28.583 14.333 27.583Q14.792 26.583 15.667 25.792L20 21.5L24.417 25.792Q25.208 26.583 25.667 27.583Q26.125 28.583 26.167 29.708Q26.167 30.083 26.042 30.5Q25.917 30.917 25.708 31.25Q27.708 30 28.875 27.875Q30.042 25.75 30.042 23.333Q30.042 21.333 29.25 19.438Q28.458 17.542 27 16Q26.167 16.583 25.25 16.854Q24.333 17.125 23.375 17.125Q20.792 17.125 19 15.542Q17.208 13.958 16.875 11.417V11Q15.208 12.333 13.938 13.833Q12.667 15.333 11.771 16.917Q10.875 18.5 10.417 20.146Q9.958 21.792 9.958 23.333ZM20 25.417 17.625 27.792Q17.083 28.292 16.854 28.875Q16.625 29.458 16.625 30.083Q16.625 31.458 17.604 32.417Q18.583 33.375 20 33.375Q21.375 33.375 22.375 32.417Q23.375 31.458 23.375 30.083Q23.375 29.417 23.125 28.833Q22.875 28.25 22.417 27.792ZM19.542 5.875V10.5Q19.542 12.125 20.667 13.208Q21.792 14.292 23.375 14.292Q24.042 14.292 24.667 14.042Q25.292 13.792 25.833 13.292L26.792 12.292Q29.583 14.125 31.229 17.083Q32.875 20.042 32.875 23.333Q32.875 28.708 29.125 32.438Q25.375 36.167 20 36.167Q14.625 36.167 10.896 32.438Q7.167 28.708 7.167 23.333Q7.167 18.375 10.458 13.646Q13.75 8.917 19.542 5.875Z"/></svg>
